assets/icons/collapse-left-24.svg

<svg width="24" height="24" viewBox="0 0 24 24" fill="none" xmlns="http://www.w3.org/2000/svg">
<path d="M2.29289 12.7071C1.90237 12.3166 1.90237 11.6834 2.29289 11.2929L7.29289 6.29289C7.68342 5.90237 8.31658 5.90237 8.70711 6.29289C9.09763 6.68342 9.09763 7.31658 8.70711 7.70711L5.41421 11H15C15.5523 11 16 11.4477 16 12C16 12.5523 15.5523 13 15 13L5.41421 13L8.70711 16.2929C9.09763 16.6834 9.09763 17.3166 8.70711 17.7071C8.31658 18.0976 7.68342 18.0976 7.29289 17.7071L2.29289 12.7071Z" fill="#F2F2F2"/>
<path d="M21 3C20.4477 3 20 3.40294 20 3.9V20.1C20 20.5971 20.4477 21 21 21C21.5523 21 22 20.5971 22 20.1L22 3.9C22 3.40294 21.5523 3 21 3Z" fill="#F2F2F2"/>
</svg>

<svg xmlns="http://www.w3.org/2000/svg" width="24" height="24" viewBox="0 0 24 24"><path d="M2.293 12.707a1 1 0 010-1.414l5-5a1 1 0 011.414 1.414L5.414 11H15a1 1 0 110 2H5.414l3.293 3.293a1 1 0 11-1.414 1.414l-5-5zM21 3c-.552 0-1 .403-1 .9v16.2c0 .497.448.9 1 .9s1-.403 1-.9V3.9c0-.497-.448-.9-1-.9z"/></svg>
